X: 128
M:C|
L:1/8
K:G
uD2|:\
|:{a}vgfge d2(ef) | {a}gfga bgaf | (3.g.g.g (gf) d2(de) | fdcA (BG)G2 |
{a}gfge d2(ef) | {a}gfga bgaf | {a}gfge d2(de) | fdcA BGG2 :|


